X: 4
T: Mike Hobin's
R: mazurka
M: 3/4
L: 1/8
K: Amix
Bcd|e2A A2g f2d|e2A ~A3 Bcd|e2g f2d =c2e|d2G ~G3 Bcd|e2A A2g f2d|e2g a2g e2f|g2e d2B G2d|B2A ~A3:||:Bcd|e2a a2b a2g|e2d e2f g2a|g2e a2f g2e|d2B ~G3 Bcd|e2a a2b a2g|e2d e2f g2a|g2e d2d BAG|B2A ~A3:|With variations in bar 1 |e3 e2g f2d| and bar 7 |g2e c2B G2d|.


Tune 5883	Setting 17800

